file/olympics-2022-beijing.svg

<svg clip-rule="evenodd" fill-rule="evenodd" stroke-linejoin="round" stroke-miterlimit="1.41421" viewBox="0 0 560 400" xmlns="http://www.w3.org/2000/svg" xmlns:xlink="http://www.w3.org/1999/xlink"><linearGradient id="a" gradientTransform="matrix(51.4259 -20.6069 20.6069 51.4259 39.4035 797.744)" gradientUnits="userSpaceOnUse" x1="0" x2="1" y1="0" y2="0"><stop offset="0" stop-color="#2b579e"/><stop offset="1" stop-color="#21558f"/></linearGradient><linearGradient id="b" gradientUnits="userSpaceOnUse" x1="2.20179" x2="163.74879" y1="848.896" y2="848.896"><stop offset="0" stop-color="#ffc606"/><stop offset=".2" stop-color="#ffc606"/><stop offset=".4" stop-color="#f9ba17"/><stop offset=".6" stop-color="#dd812a"/><stop offset=".8" stop-color="#c32f36"/><stop offset="1" stop-color="#b22731"/></linearGradient><linearGradient id="c" gradientUnits="userSpaceOnUse" x1="12.6464" x2="168.4274" y1="872.695" y2="872.695"><stop offset="0" stop-color="#2762a8"/><stop offset=".2" stop-color="#0176bc"/><stop offset=".4" stop-color="#0195d5"/><stop offset=".6" stop-color="#3ab3e8"/><stop offset=".8" stop-color="#7dcbf1"/><stop offset="1" stop-color="#93e0fa"/></linearGradient><linearGradient id="d" gradientTransform="matrix(83.0432 -.515796 .515796 83.0432 2.33047 842.391)" gradientUnits="userSpaceOnUse" x1="0" x2="1" y1="0" y2="0"><stop offset="0" stop-color="#275aa9"/><stop offset=".2" stop-color="#2767af"/><stop offset=".4" stop-color="#1279bc"/><stop offset=".6" stop-color="#1090ca"/><stop offset=".8" stop-color="#45a6d9"/><stop offset="1" stop-color="#5abaea"/></linearGradient><linearGradient id="e" gradientUnits="userSpaceOnUse" x1="16.128" x2="112.0669" y1="880.174" y2="880.174"><stop offset="0" stop-color="#ffc61c"/><stop offset=".2" stop-color="#ebcc33"/><stop offset=".4" stop-color="#c8ca65"/><stop offset=".6" stop-color="#97ca8f"/><stop offset=".8" stop-color="#6dcad9"/><stop offset="1" stop-color="#60ccf3"/></linearGradient><g fill-rule="nonzero"><g transform="matrix(.8 0 0 .8 210.85 -543.578)"><path d="m15.999 857.736c20.991-28.801 49.001-46.163 49.001-46.163l15.989-10.832 28.747 9.958s-45.659 7.668-93.737 47.037z" fill="#2b57a0"/><path d="m50.815 813.378c33.001-5.132 58.921-2.679 58.921-2.679l-10.629-15.372c-9.552-3.261-28.572-3.196-28.572-3.196l-20.493 6.031z" fill="#c22634"/><path d="m91.047 777.272c-24.579 5.346-37.966 11.003-51.149 20.53l10.917 15.576c11.805-14.724 27.143-29.162 40.232-36.106z" fill="url(#a)"/><path d="m2.165 869.384c68.122-55.312 131.532-50.987 131.532-50.987 23.04 0 29.919 3.848 29.919 3.848s-7.564-.595-14.998-.595c0 0-27.433-.836-62.986 14.423l-32.238 10.058-33.011 17.795z" fill="url(#b)"/><path d="m12.131 880.947c40.034-30.771 67.487-27.563 67.487-27.563 19.237 0 46.285 6.387 62.017 6.387 11.653 0 13.214-3.217 18.217-9.611 3.772-5.007 8.142-14.28 8.142-21.336-3.142 6.909-7.567 10.172-22.102 10.172-17.332 0-27.099-3.174-60.26-2.923l-31.722 9.8-38.685 21.921z" fill="url(#c)"/><path d="m2.202 869.213c45.108-34.123 83.43-33.14 83.43-33.14s-35.923 14.538-73.501 44.874z" fill="url(#d)"/><path d="m16.257 880.689c17.56-11.4 38.154-16.362 57.671-16.362 20.44 0 38.525 7.336 38.525 7.336l-30.174 7.737-8.253-.774c-14.459-3.771-36.645-5.937-57.769 2.063z" fill="url(#e)"/><path d="m43.852 893.842c33.148-23.478 68.601-22.179 68.601-22.179s-27.447 9.028-47.195 36.106l-8.769 1.289-9.542-11.347z" fill="#2babda"/><path d="m43.852 893.842c14.283 33.071 50.548 49.517 50.548 49.517 2.178 1.183 2.644.68 3.611 0 0 0 4.3-2.611 13.454-16.363 0 0-45.571-15.777-67.613-33.154z" fill="#2b579e"/><path d="m-26.627 963.035c-7.429 0-11.936 1.749-11.936 1.749l3.563 4.932 4.336-1.136s-3.939 9.112-6.77 21.969c0 0 3.151.516 6.834.516 8.404 0 16.302-2.759 18.585-9.945l-1.66-4.779s-1.377-1.443-2.732-1.862c3.539-2.297 3.747-4.989 3.747-4.989l-1.402-4.513s-5.018-1.942-12.565-1.942zm1.814 4.787c3.381 0 8.389.621 8.389.621-4.418 3.596-9.026 4.416-9.026 4.416l1.491 4.441c5.777.013 8.72 2.426 8.72 2.426-4.287 5.963-14.7 5.48-14.7 5.48 2.594-10.061 5.126-17.384 5.126-17.384z"/><path d="m-7.679 991.15-3.305-4.739c3.341-12.451 7.555-21.35 7.555-21.35 6.377-.349 13.267-.069 13.267-.069l1.391 4.651s-6.401-.359-11.216.615c0 0-.844 2.13-1.846 5.061 5.275-.506 9.323-.046 9.323-.046l1.619 4.308c-8.376.347-12.652 1.254-12.652 1.254l-1.253 5.311s4.004.522 11.511-.661l1.641 4.81s-7.661.855-16.035.855z"/><path d="m9.955 991.094h6.415c3.425-15.455 7.616-26.08 7.616-26.08h-5.384s-4.517 8.985-8.647 26.08z"/><path d="m10.451 998.982 6.339 2.338c.799.37 1.269.24 1.927.05 6.909-2.064 8.153-7.354 10.338-14.312l6.045-22.004h-6.545l-6.157 20.978c-2.294 7.83-4.563 14.408-11.947 12.95z"/><path d="m32.567 991.094h6.416c3.425-15.455 7.616-26.08 7.616-26.08h-5.384s-4.517 8.985-8.648 26.08z"/><path d="m43.735 991.081c2.737-13.244 8.595-26.051 8.595-26.051h5.259s.656 7.922 3.524 16.276c2.571-9.126 5.966-16.268 5.966-16.268h5.368s-4.43 10.55-7.604 26.066h-6.461s-3.017-6.651-4.386-15.352c0 0-2.298 7.727-3.97 15.334z"/><path d="m76.024 991.161c-2.553 0-3.545-.684-3.545-.684l-2.325-3.35s-.661-1.118-.661-4.012c0-6.586 5.802-18.48 23.44-18.48l1.87 5.497c-10.614-1.005-21.549 7.528-21.549 13.894 0 1.512 1.089 2.28 2.941 2.28 5.585 0 10.816-5.175 11.853-7.112l5.882 2.211c-.539 5.266-3.36 10.086-8.763 13.363-.718.496-1.344.72-2.495.223l-3.923-1.584c3.994-.595 6.662-5.559 6.662-5.559s-4.967 3.313-9.387 3.313z"/><path d="m110.39 992.859-4.546-6.56c13.234-8.791 17.355-16.52 17.355-16.52s-6.502.357-12.424 3.625l-1.937-5.562s4.961-3.328 13.494-3.328c2.862 0 4.787.547 4.787.547l1.778 5.22c-1.892 4.824-8.662 12.925-8.662 12.925 3.169-.753 9.072-.082 10.919 2.234l2.527.982-.206 1.917-1.409-.164s-2.385-.159-3.83-.159c-10.033 0-17.846 4.843-17.846 4.843z"/><path d="m157.44 991.956-4.529-6.512c13.399-9.342 17.134-16.989 17.134-16.989-6.27.115-12.121 3.772-12.121 3.772l-1.999-5.625s4.88-3.111 12.621-3.111c2.424 0 5.271.499 5.271.499l1.805 5.545c-3.765 7.172-8.253 12.347-8.253 12.347 6.277-.577 9.906 1.453 9.906 1.453l1.53 1.682c10.914-7.925 14.514-14.337 14.514-14.337s-6.168.003-11.975 2.982l-1.95-5.497s4.903-2.998 13.104-2.998c3.467 0 5.142.564 5.142.564l1.854 5.4s-2.061 4.436-8.206 11.801c0 0 2.531-.244 4.595-.244 7.297 0 8.271 1.505 8.271 1.505l7.284 5.345s-3.894-1.74-10.3-1.74c0 0-9.292-.475-20.723 5.62l-4.468-6.679s-10.008.02-18.507 5.217z"/><path d="m145.335 964.848c-6.906 2.103-14.91 9.188-14.91 16.796 0 1.983.411 5.395 3.949 9.22l6.287 1.781c7.476-1.426 14.216-9.123 14.216-17.223 0-5.513-3.723-8.607-3.723-8.607zm1.87 3.562s1.547 2.98 1.547 6.883c0 9.203-10.477 13.701-10.477 13.701s-1.805-3.029-1.805-6.931c0-9.082 10.735-13.653 10.735-13.653z"/></g><g transform="matrix(.3634536 0 0 .3634536 216.972536 264.334)"><path d="m54 0c-29.767 0-54 24.233-54 54s24.233 54 54 54 54-24.233 54-54-24.233-54-54-54zm0 9.5c24.633 0 44.5 19.867 44.5 44.5s-19.867 44.5-44.5 44.5-44.5-19.867-44.5-44.5 19.867-44.5 44.5-44.5z" fill="#0885c2"/><path d="m171 0c-29.767 0-54 24.233-54 54s24.233 54 54 54 54-24.233 54-54-24.233-54-54-54zm0 9.5c24.633 0 44.5 19.867 44.5 44.5s-19.867 44.5-44.5 44.5-44.5-19.867-44.5-44.5 19.867-44.5 44.5-44.5z"/><path d="m288 0c-29.767 0-54 24.233-54 54s24.233 54 54 54 54-24.233 54-54-24.233-54-54-54zm0 9.5c24.633 0 44.5 19.867 44.5 44.5s-19.867 44.5-44.5 44.5-44.5-19.867-44.5-44.5 19.867-44.5 44.5-44.5z" fill="#ed334e"/><path d="m112.5 50c-29.767 0-54 24.233-54 54s24.233 54 54 54 54-24.233 54-54-24.233-54-54-54zm0 9.5c24.633 0 44.5 19.867 44.5 44.5s-19.867 44.5-44.5 44.5-44.5-19.867-44.5-44.5 19.867-44.5 44.5-44.5z" fill="#fbb132"/><path d="m229.5 50c-29.767 0-54 24.233-54 54s24.233 54 54 54 54-24.233 54-54-24.233-54-54-54zm0 9.5c24.633 0 44.5 19.867 44.5 44.5s-19.867 44.5-44.5 44.5-44.5-19.867-44.5-44.5 19.867-44.5 44.5-44.5z" fill="#1c8b3c"/></g></g></svg>

<?xml version="1.0" encoding="UTF-8" standalone="no"?>
<!DOCTYPE svg PUBLIC "-//W3C//DTD SVG 1.1//EN" "http://www.w3.org/Graphics/SVG/1.1/DTD/svg11.dtd">
<svg width="100%" height="100%" viewBox="0 0 560 400" version="1.1" xmlns="http://www.w3.org/2000/svg" xmlns:xlink="http://www.w3.org/1999/xlink" xml:space="preserve" xmlns:serif="http://www.serif.com/" style="fill-rule:evenodd;clip-rule:evenodd;stroke-linejoin:round;stroke-miterlimit:1.41421;">
    <g id="Layer-1" serif:id="Layer 1" transform="matrix(0.8,0,0,0.8,210.85,-543.578)">
        <g>
            <path id="path3002" d="M15.999,857.736C36.99,828.935 65,811.573 65,811.573L80.989,800.741L109.736,810.699C109.736,810.699 64.077,818.367 15.999,857.736Z" style="fill:rgb(43,87,160);fill-rule:nonzero;"/>
            <path id="path3000" d="M50.815,813.378C83.816,808.246 109.736,810.699 109.736,810.699L99.107,795.327C89.555,792.066 70.535,792.131 70.535,792.131L50.042,798.162L50.815,813.378Z" style="fill:rgb(194,38,52);fill-rule:nonzero;"/>
            <path id="path2998" d="M91.047,777.272C66.468,782.618 53.081,788.275 39.898,797.802L50.815,813.378C62.62,798.654 77.958,784.216 91.047,777.272Z" style="fill:url(#_Linear1);fill-rule:nonzero;"/>
            <path id="path3006" d="M2.165,869.384C70.287,814.072 133.697,818.397 133.697,818.397C156.737,818.397 163.616,822.245 163.616,822.245C163.616,822.245 156.052,821.65 148.618,821.65C148.618,821.65 121.185,820.814 85.632,836.073L53.394,846.131L20.383,863.926L2.165,869.384Z" style="fill:url(#_Linear2);fill-rule:nonzero;"/>
            <path id="path3008" d="M12.131,880.947C52.165,850.176 79.618,853.384 79.618,853.384C98.855,853.384 125.903,859.771 141.635,859.771C153.288,859.771 154.849,856.554 159.852,850.16C163.624,845.153 167.994,835.88 167.994,828.824C164.852,835.733 160.427,838.996 145.892,838.996C128.56,838.996 118.793,835.822 85.632,836.073L53.91,845.873L15.225,867.794L12.131,880.947Z" style="fill:url(#_Linear3);fill-rule:nonzero;"/>
            <path id="path3004" d="M2.202,869.213C47.31,835.09 85.632,836.073 85.632,836.073C85.632,836.073 49.709,850.611 12.131,880.947L2.202,869.213Z" style="fill:url(#_Linear4);fill-rule:nonzero;"/>
            <path id="path3010" d="M16.257,880.689C33.817,869.289 54.411,864.327 73.928,864.327C94.368,864.327 112.453,871.663 112.453,871.663L82.279,879.4L74.026,878.626C59.567,874.855 37.381,872.689 16.257,880.689Z" style="fill:url(#_Linear5);fill-rule:nonzero;"/>
            <path id="path3012" d="M43.852,893.842C77,870.364 112.453,871.663 112.453,871.663C112.453,871.663 85.006,880.691 65.258,907.769L56.489,909.058L46.947,897.711L43.852,893.842Z" style="fill:rgb(43,171,218);fill-rule:nonzero;"/>
            <path id="path3014" d="M43.852,893.842C58.135,926.913 94.4,943.359 94.4,943.359C96.578,944.542 97.044,944.039 98.011,943.359C98.011,943.359 102.311,940.748 111.465,926.996C111.465,926.996 65.894,911.219 43.852,893.842Z" style="fill:rgb(43,87,158);fill-rule:nonzero;"/>
            <path id="path3016" d="M-26.627,963.035C-34.056,963.035 -38.563,964.784 -38.563,964.784L-35,969.716L-30.664,968.58C-30.664,968.58 -34.603,977.692 -37.434,990.549C-37.434,990.549 -34.283,991.065 -30.6,991.065C-22.196,991.065 -14.298,988.306 -12.015,981.12L-13.675,976.341C-13.675,976.341 -15.052,974.898 -16.407,974.479C-12.868,972.182 -12.66,969.49 -12.66,969.49L-14.062,964.977C-14.062,964.977 -19.08,963.035 -26.627,963.035ZM-24.813,967.822C-21.432,967.822 -16.424,968.443 -16.424,968.443C-20.842,972.039 -25.45,972.859 -25.45,972.859L-23.959,977.3C-18.182,977.313 -15.239,979.726 -15.239,979.726C-19.526,985.689 -29.939,985.206 -29.939,985.206C-27.345,975.145 -24.813,967.822 -24.813,967.822Z" style="fill-rule:nonzero;"/>
            <path id="path3049" d="M-7.679,991.15L-10.984,986.411C-7.643,973.96 -3.429,965.061 -3.429,965.061C2.948,964.712 9.838,964.992 9.838,964.992L11.229,969.643C11.229,969.643 4.828,969.284 0.013,970.258C0.013,970.258 -0.831,972.388 -1.833,975.319C3.442,974.813 7.49,975.273 7.49,975.273L9.109,979.581C0.733,979.928 -3.543,980.835 -3.543,980.835L-4.796,986.146C-4.796,986.146 -0.792,986.668 6.715,985.485L8.356,990.295C8.356,990.295 0.695,991.15 -7.679,991.15Z" style="fill-rule:nonzero;"/>
            <path id="path3051" d="M9.955,991.094L16.37,991.094C19.795,975.639 23.986,965.014 23.986,965.014L18.602,965.014C18.602,965.014 14.085,973.999 9.955,991.094Z" style="fill-rule:nonzero;"/>
            <path id="path3053" d="M10.451,998.982L16.79,1001.32C17.589,1001.69 18.059,1001.56 18.717,1001.37C25.626,999.306 26.87,994.016 29.055,987.058L35.1,965.054L28.555,965.054L22.398,986.032C20.104,993.862 17.835,1000.44 10.451,998.982L10.451,998.982Z" style="fill-rule:nonzero;"/>
            <path id="path3055" d="M32.567,991.094L38.983,991.094C42.408,975.639 46.599,965.014 46.599,965.014L41.215,965.014C41.215,965.014 36.698,973.999 32.567,991.094Z" style="fill-rule:nonzero;"/>
            <path id="path3057" d="M43.735,991.081C46.472,977.837 52.33,965.03 52.33,965.03L57.589,965.03C57.589,965.03 58.245,972.952 61.113,981.306C63.684,972.18 67.079,965.038 67.079,965.038L72.447,965.038C72.447,965.038 68.017,975.588 64.843,991.104L58.382,991.104C58.382,991.104 55.365,984.453 53.996,975.752C53.996,975.752 51.698,983.479 50.026,991.086L43.735,991.081Z" style="fill-rule:nonzero;"/>
            <path id="path3059" d="M76.024,991.161C73.471,991.161 72.479,990.477 72.479,990.477L70.154,987.127C70.154,987.127 69.493,986.009 69.493,983.115C69.493,976.529 75.295,964.635 92.933,964.635L94.803,970.132C84.189,969.127 73.254,977.66 73.254,984.026C73.254,985.538 74.343,986.306 76.195,986.306C81.78,986.306 87.011,981.131 88.048,979.194L93.93,981.405C93.391,986.671 90.57,991.491 85.167,994.768C84.449,995.264 83.823,995.488 82.672,994.991L78.749,993.407C82.743,992.812 85.411,987.848 85.411,987.848C85.411,987.848 80.444,991.161 76.024,991.161Z" style="fill-rule:nonzero;"/>
            <path id="path3076" d="M110.39,992.859L105.844,986.299C119.078,977.508 123.199,969.779 123.199,969.779C123.199,969.779 116.697,970.136 110.775,973.404L108.838,967.842C108.838,967.842 113.799,964.514 122.332,964.514C125.194,964.514 127.119,965.061 127.119,965.061L128.897,970.281C127.005,975.105 120.235,983.206 120.235,983.206C123.404,982.453 129.307,983.124 131.154,985.44L133.681,986.422L133.475,988.339L132.066,988.175C132.066,988.175 129.681,988.016 128.236,988.016C118.203,988.016 110.39,992.859 110.39,992.859Z" style="fill-rule:nonzero;"/>
            <path id="path3082" d="M157.44,991.956L152.911,985.444C166.31,976.102 170.045,968.455 170.045,968.455C163.775,968.57 157.924,972.227 157.924,972.227L155.925,966.602C155.925,966.602 160.805,963.491 168.546,963.491C170.97,963.491 173.817,963.99 173.817,963.99L175.622,969.535C171.857,976.707 167.369,981.882 167.369,981.882C173.646,981.305 177.275,983.335 177.275,983.335L178.805,985.017C189.719,977.092 193.319,970.68 193.319,970.68C193.319,970.68 187.151,970.683 181.344,973.662L179.394,968.165C179.394,968.165 184.297,965.167 192.498,965.167C195.965,965.167 197.64,965.731 197.64,965.731L199.494,971.131C199.494,971.131 197.433,975.567 191.288,982.932C191.288,982.932 193.819,982.688 195.883,982.688C203.18,982.688 204.154,984.193 204.154,984.193L211.438,989.538C211.438,989.538 207.544,987.798 201.138,987.798C201.138,987.798 191.846,987.323 180.415,993.418L175.947,986.739C175.947,986.739 165.939,986.759 157.44,991.956Z" style="fill-rule:nonzero;"/>
            <path id="path3137" d="M145.335,964.848C138.429,966.951 130.425,974.036 130.425,981.644C130.425,983.627 130.836,987.039 134.374,990.864L140.661,992.645C148.137,991.219 154.877,983.522 154.877,975.422C154.877,969.909 151.154,966.815 151.154,966.815L145.335,964.848ZM147.205,968.41C147.205,968.41 148.752,971.39 148.752,975.293C148.752,984.496 138.275,988.994 138.275,988.994C138.275,988.994 136.47,985.965 136.47,982.063C136.47,972.981 147.205,968.41 147.205,968.41Z" style="fill-rule:nonzero;"/>
        </g>
        <g id="g3013" transform="matrix(0.454317,0,0,0.454317,7.65317,1009.89)">
            <path id="circle3015" d="M54,0C24.233,0 0,24.233 0,54C0,83.767 24.233,108 54,108C83.767,108 108,83.767 108,54C108,24.233 83.767,0 54,0ZM54,9.5C78.633,9.5 98.5,29.367 98.5,54C98.5,78.633 78.633,98.5 54,98.5C29.367,98.5 9.5,78.633 9.5,54C9.5,29.367 29.367,9.5 54,9.5Z" style="fill:rgb(8,133,194);fill-rule:nonzero;"/>
            <path id="circle3017" d="M171,0C141.233,0 117,24.233 117,54C117,83.767 141.233,108 171,108C200.767,108 225,83.767 225,54C225,24.233 200.767,0 171,0ZM171,9.5C195.633,9.5 215.5,29.367 215.5,54C215.5,78.633 195.633,98.5 171,98.5C146.367,98.5 126.5,78.633 126.5,54C126.5,29.367 146.367,9.5 171,9.5Z" style="fill-rule:nonzero;"/>
            <path id="circle3019" d="M288,0C258.233,0 234,24.233 234,54C234,83.767 258.233,108 288,108C317.767,108 342,83.767 342,54C342,24.233 317.767,0 288,0ZM288,9.5C312.633,9.5 332.5,29.367 332.5,54C332.5,78.633 312.633,98.5 288,98.5C263.367,98.5 243.5,78.633 243.5,54C243.5,29.367 263.367,9.5 288,9.5Z" style="fill:rgb(237,51,78);fill-rule:nonzero;"/>
            <path id="circle3021" d="M112.5,50C82.733,50 58.5,74.233 58.5,104C58.5,133.767 82.733,158 112.5,158C142.267,158 166.5,133.767 166.5,104C166.5,74.233 142.267,50 112.5,50ZM112.5,59.5C137.133,59.5 157,79.367 157,104C157,128.633 137.133,148.5 112.5,148.5C87.867,148.5 68,128.633 68,104C68,79.367 87.867,59.5 112.5,59.5Z" style="fill:rgb(251,177,50);fill-rule:nonzero;"/>
            <path id="circle3023" d="M229.5,50C199.733,50 175.5,74.233 175.5,104C175.5,133.767 199.733,158 229.5,158C259.267,158 283.5,133.767 283.5,104C283.5,74.233 259.267,50 229.5,50ZM229.5,59.5C254.133,59.5 274,79.367 274,104C274,128.633 254.133,148.5 229.5,148.5C204.867,148.5 185,128.633 185,104C185,79.367 204.867,59.5 229.5,59.5Z" style="fill:rgb(28,139,60);fill-rule:nonzero;"/>
        </g>
    </g>
    <defs>
        <linearGradient id="_Linear1" x1="0" y1="0" x2="1" y2="0" gradientUnits="userSpaceOnUse" gradientTransform="matrix(51.4259,-20.6069,20.6069,51.4259,39.4035,797.744)"><stop offset="0" style="stop-color:rgb(43,87,158);stop-opacity:1"/><stop offset="1" style="stop-color:rgb(33,85,143);stop-opacity:1"/></linearGradient>
        <linearGradient id="_Linear2" x1="0" y1="0" x2="1" y2="0" gradientUnits="userSpaceOnUse" gradientTransform="matrix(161.547,0,0,161.547,2.20179,848.896)"><stop offset="0" style="stop-color:rgb(255,198,6);stop-opacity:1"/><stop offset="0.2" style="stop-color:rgb(255,198,6);stop-opacity:1"/><stop offset="0.4" style="stop-color:rgb(249,186,23);stop-opacity:1"/><stop offset="0.6" style="stop-color:rgb(221,129,42);stop-opacity:1"/><stop offset="0.8" style="stop-color:rgb(195,47,54);stop-opacity:1"/><stop offset="1" style="stop-color:rgb(178,39,49);stop-opacity:1"/></linearGradient>
        <linearGradient id="_Linear3" x1="0" y1="0" x2="1" y2="0" gradientUnits="userSpaceOnUse" gradientTransform="matrix(155.781,0,0,155.781,12.6464,872.695)"><stop offset="0" style="stop-color:rgb(39,98,168);stop-opacity:1"/><stop offset="0.2" style="stop-color:rgb(1,118,188);stop-opacity:1"/><stop offset="0.4" style="stop-color:rgb(1,149,213);stop-opacity:1"/><stop offset="0.6" style="stop-color:rgb(58,179,232);stop-opacity:1"/><stop offset="0.8" style="stop-color:rgb(125,203,241);stop-opacity:1"/><stop offset="1" style="stop-color:rgb(147,224,250);stop-opacity:1"/></linearGradient>
        <linearGradient id="_Linear4" x1="0" y1="0" x2="1" y2="0" gradientUnits="userSpaceOnUse" gradientTransform="matrix(83.0432,-0.515796,0.515796,83.0432,2.33047,842.391)"><stop offset="0" style="stop-color:rgb(39,90,169);stop-opacity:1"/><stop offset="0.2" style="stop-color:rgb(39,103,175);stop-opacity:1"/><stop offset="0.4" style="stop-color:rgb(18,121,188);stop-opacity:1"/><stop offset="0.6" style="stop-color:rgb(16,144,202);stop-opacity:1"/><stop offset="0.8" style="stop-color:rgb(69,166,217);stop-opacity:1"/><stop offset="1" style="stop-color:rgb(90,186,234);stop-opacity:1"/></linearGradient>
        <linearGradient id="_Linear5" x1="0" y1="0" x2="1" y2="0" gradientUnits="userSpaceOnUse" gradientTransform="matrix(95.9389,0,0,95.9389,16.128,880.174)"><stop offset="0" style="stop-color:rgb(255,198,28);stop-opacity:1"/><stop offset="0.2" style="stop-color:rgb(235,204,51);stop-opacity:1"/><stop offset="0.4" style="stop-color:rgb(200,202,101);stop-opacity:1"/><stop offset="0.6" style="stop-color:rgb(151,202,143);stop-opacity:1"/><stop offset="0.8" style="stop-color:rgb(109,202,217);stop-opacity:1"/><stop offset="1" style="stop-color:rgb(96,204,243);stop-opacity:1"/></linearGradient>
    </defs>
</svg>
